X:23
T:Mairi's Wedding
C:Trad, Sc.
M:4/4
R:reel
Q:1/2=120
L:1/8
K:D %Transposed from G
  |: "D" A3A A2 B2 |"D" d2 e2 f4 |"A"  e2 d2 "G" B2 d2 |"A"f2 e2 fa3 |
"D"  A3A A2 B2 |"D" d2 e2 f4 | "A" e2 d2 "G" B2 G2 | "A"A4 A4 :|
 |:"D" a3b a2 b2 | "D"a2 g2 f4 | "A" e2 d2"G" B2 d2 | "A"f2 e2 fa3 |
 "D" a3b a2 b2 |"D" a2 g2 f4 | "A" e2 d2 "G" B2 G2 |"A" A4 A4 :|
